X: 210
T:Nancy Dawson
% Nottingham Music Database
S:EF
M:6/8
K:G
D|"G"G2G G2B|"G"d2B G2B|"Am"A2B A2G|"Am"A2G "D7"FED|"G"G2G G2B|
"G"d2B G2B|"Am"A2G F2E|"D"D3 D3|"D"A2B A2B|"D"A2G FED|"G"d2e d2e|
"G"d2c BAG|"C"c2B c2d|"Am"e2f g2e|"D7"d2c B2A|"G"G3 G2||


